svg/transport/train_3_fill.svg

<?xml version="1.0" encoding="UTF-8"?>
<svg width="24px" height="24px" viewBox="0 0 24 24" version="1.1" xmlns="http://www.w3.org/2000/svg" xmlns:xlink="http://www.w3.org/1999/xlink">
    <title>train_3_fill</title>
    <g id="Icon" stroke="none" stroke-width="1" fill="none" fill-rule="evenodd">
        <g id="Transport" transform="translate(-384.000000, -240.000000)">
            <g id="train_3_fill" transform="translate(384.000000, 240.000000)">
                <path d="M24,0 L24,24 L0,24 L0,0 L24,0 Z M12.5935,23.2578 L12.5819,23.2595 L12.5109,23.295 L12.4919,23.2987 L12.4767,23.295 L12.4057,23.2595 C12.3958,23.2564 12.387,23.259 12.3821,23.2649 L12.378,23.2758 L12.3609,23.7031 L12.3659,23.7235 L12.3769,23.7357 L12.4805,23.8097 L12.4953,23.8136 L12.5071,23.8097 L12.6107,23.7357 L12.6233,23.7197 L12.6267,23.7031 L12.6096,23.2758 C12.6076,23.2657 12.601,23.2593 12.5935,23.2578 Z M12.8584,23.1453 L12.8445,23.1473 L12.6598,23.2397 L12.6499,23.2499 L12.6472,23.2611 L12.6651,23.6906 L12.6699,23.7034 L12.6784,23.7105 L12.8793,23.8032 C12.8914,23.8069 12.9022,23.803 12.9078,23.7952 L12.9118,23.7812 L12.8777,23.1665 C12.8753,23.1546 12.8674,23.147 12.8584,23.1453 Z M12.143,23.1473 C12.1332,23.1424 12.1222,23.1453 12.1156,23.1526 L12.1099,23.1665 L12.0758,23.7812 C12.0751,23.7927 12.0828,23.8019 12.0926,23.8046 L12.1083,23.8032 L12.3092,23.7105 L12.3186,23.7024 L12.3225,23.6906 L12.3404,23.2611 L12.3372,23.2485 L12.3278,23.2397 L12.143,23.1473 Z" id="MingCute" fill-rule="nonzero"></path>
                <path d="M17,2 C19.2091,2 21,3.79086 21,6 L21,15 C21,16.9094 19.6621,18.5063 17.8727,18.9045 L19.6,20.2 C20.0418,20.5314 20.1314,21.1582 19.8,21.6 C19.4686,22.0418 18.8418,22.1314 18.4,21.8 L14.6667,19 L9.33333,19 L5.6,21.8 C5.15817,22.1314 4.53137,22.0418 4.2,21.6 C3.86863,21.1582 3.95817,20.5314 4.4,20.2 L6.12731,18.9045 C4.33785,18.5063 3,16.9094 3,15 L3,6 C3,3.79086 4.79086,2 7,2 L17,2 Z M12,13 C11.1716,13 10.5,13.6716 10.5,14.5 C10.5,15.3284 11.1716,16 12,16 C12.8284,16 13.5,15.3284 13.5,14.5 C13.5,13.6716 12.8284,13 12,13 Z M19,8 L5,8 L5,10 L19,10 L19,8 Z M17,4 L7,4 C5.94563773,4 5.08183483,4.81587733 5.00548573,5.85073759 L5,6 L19,6 C19,4.94563773 18.18415,4.08183483 17.1492661,4.00548573 L17,4 Z" id="形状" fill="#09244B"></path>
            </g>
        </g>
    </g>
</svg>

<svg xmlns="http://www.w3.org/2000/svg" width="24" height="24"><g fill="none" fill-rule="evenodd"><path d="M24 0v24H0V0h24ZM12.594 23.258l-.012.002-.071.035-.02.004-.014-.004-.071-.036c-.01-.003-.019 0-.024.006l-.004.01-.017.428.005.02.01.013.104.074.015.004.012-.004.104-.074.012-.016.004-.017-.017-.427c-.002-.01-.009-.017-.016-.018Zm.264-.113-.014.002-.184.093-.01.01-.003.011.018.43.005.012.008.008.201.092c.012.004.023 0 .029-.008l.004-.014-.034-.614c-.003-.012-.01-.02-.02-.022Zm-.715.002a.023.023 0 0 0-.027.006l-.006.014-.034.614c0 .012.007.02.017.024l.015-.002.201-.093.01-.008.003-.011.018-.43-.003-.012-.01-.01-.184-.092Z"/><path fill="#09244B" d="M17 2a4 4 0 0 1 4 4v9a4.002 4.002 0 0 1-3.127 3.904L19.6 20.2a1 1 0 0 1-1.2 1.6L14.667 19H9.333L5.6 21.8a1 1 0 1 1-1.2-1.6l1.727-1.296A4.001 4.001 0 0 1 3 15V6a4 4 0 0 1 4-4h10Zm-5 11a1.5 1.5 0 1 0 0 3 1.5 1.5 0 0 0 0-3Zm7-5H5v2h14V8Zm-2-4H7a2 2 0 0 0-1.995 1.85L5 6h14a2 2 0 0 0-1.85-1.995L17 4Z"/></g></svg>
